X:1
T:Partition sans titre
C:Compositeur / Arrangeur
L:1/8
M:4/4
I:linebreak $
K:D
V:1 treble nm="Violon" snm="Vln."
V:1
"Bm" B2 Bd BAFA | B2 Bd BAFA |"D" AF (3FFF DF (3FFF | AFdB AFEF |"Bm" B2 Bd BAFA | B2 Bd BAFA | %6
"D" AFAB dcdf | edef d2 d2 ::"A" e2 ec"D" d2 Bd |"A" efec"D" dFAB |"A" e2 ec"D" d3 e | fedB ADFA | %12
"A" e2 ef"G" eB (3BBB | gB (3BBB"D" defg | afbf afef |"G" gedB"D" ADFA :| %16
